X:1
T:Standin In The Need of Prayer
T:These are my Father's children
T:Copyright 1881 by The Riverside Press
T:Rodeheaver's Plantation Melodies
Z:Rodeheaver's Plantation Melodies
L:1/8
Q:1/4=70
M:2/2
K:D
V:1 treble nm="Soprano" snm="S."
V:1
 B2 B4 B2 | d2 d2 BA F2 | A2 A4 c2 | c2 c2 BA F2 | B2 B4 B2 | d2 d2 BA F2 | (d3 c/B/) c2 c2 | B6 || %8
w: There are my|Fa- ther's chil- * dren.|These are my|Fa- tther's chil- * dren.|These are my|Fa- ther's chil- * dren.|All- * * in one|band.|
 B,B, | D2 EE F2 FF | AABB (FE D2) | FFEE (EF G2) | FFEE B,2 B,B, | D2 EE F2 FF | AABB F2 dd | %15
w: And I|soon shall be done with the|trou- bles of the world- * .|Trou- bles of the world- * .|Trou- bles of the world. And I|soon shall be done with the|tru- bles of the world. Go- ing|
"_2. My brother's done with the troubles of the world.\n\n3. My sister's done with the troubles of the world.\n" cd/c/Bc d2 c2 | %16
w: home- * * * to live with|
 (B3 F) F4!D.C.! |] %17
w: God- . Oh.|

